packages/foundations/assets/icons/functional/images/communication/envelope_28.svg

<svg width="28" height="28" viewBox="0 0 28 28" fill="none" xmlns="http://www.w3.org/2000/svg">
<g clip-path="url(#clip0_185_449)">
<path fill-rule="evenodd" clip-rule="evenodd" d="M24.5 5.25C25.4571 5.25 26.25 6.04293 26.25 7V20.125C26.25 21.5742 25.0742 22.75 23.625 22.75H4.375C2.92582 22.75 1.75 21.5742 1.75 20.125V7C1.75 6.04293 2.54293 5.25 3.5 5.25H24.5ZM24.5 8.23042L15.8594 16.871C15.3398 17.3906 14.6562 17.6367 14 17.6367C13.371 17.6367 12.7422 17.4453 12.2773 16.9804L3.5 8.23042V20.125C3.5 20.6172 3.88281 21 4.375 21H23.625C24.1172 21 24.5 20.6172 24.5 20.125V8.23042ZM23.2696 7H4.73042L13.371 15.6406C13.5625 15.8321 13.7812 15.8867 14 15.8867C14.1915 15.8867 14.4648 15.8047 14.6562 15.6133L23.2696 7Z" fill="#1A1C1F"/>
</g>
<defs>
<clipPath id="clip0_185_449">
<rect width="28" height="28" fill="white"/>
</clipPath>
</defs>
</svg>

<svg xmlns="http://www.w3.org/2000/svg" width="28" height="28" fill="none"><g clip-path="url(#a)"><path fill="#1A1C1F" fill-rule="evenodd" d="M24.5 5.25c.957 0 1.75.793 1.75 1.75v13.125a2.626 2.626 0 0 1-2.625 2.625H4.375a2.626 2.626 0 0 1-2.625-2.625V7c0-.957.793-1.75 1.75-1.75zm0 2.98-8.64 8.641a2.63 2.63 0 0 1-1.86.766c-.629 0-1.258-.192-1.723-.657L3.5 8.23v11.895c0 .492.383.875.875.875h19.25a.864.864 0 0 0 .875-.875zM23.27 7H4.73l8.641 8.64c.191.192.41.247.629.247a.98.98 0 0 0 .656-.274z" clip-rule="evenodd"/></g><defs><clipPath id="a"><path fill="#fff" d="M0 0h28v28H0z"/></clipPath></defs></svg>
